X:1
T: Winter Night, A
R: reel
C: Rick Gagne
N: 1988 on whistle
M: 4/4
Q: 1/4=175
K: Bm
dc | "Bm"B2Bc dcBA | "G"B2Bc dcBA | "Em"B2Bc dcBA | "F#m"f2fa fedc |
"Bm"B2Bc dcBA | "G"B2Bc dcBA | "F#m"F2FA c2Af-|"F#5"f2fa fe :|
df |"Bm"bf~f2 "G"gfef|"Bm"dfcf BcdB|"A"cA~A2 eA~A2|"F#m"fA~A2 "A"eA~A2|
"Bm"bf~f2 "G"gfef|"Bm"dfcf BcdB|"A"cA~A2 "F#m"fece|"G"dBcA "Bm"B2 :|
